assets/images/symbols/wild-grass.svg

<!-- Generated by IcoMoon.io -->
<svg version="1.1" xmlns="http://www.w3.org/2000/svg" width="1200" height="1200" viewBox="0 0 1200 1200">
<title>wild-grass</title>
<path d="M600 1081.691h-600v-121.127h343.662q-30.986-126.761-123.943-219.718t-219.718-123.943q28.17-8.45 57.746-12.676t60.564-4.226q101.408 0 188.733 38.029t152.113 102.817 102.817 152.113 38.029 188.733zM1200 616.903q-28.17-8.45-57.746-12.676t-60.564-4.226q-132.395 0-242.254 64.788t-171.831 171.831q14.085 28.17 23.944 59.155t15.493 64.788q11.268 59.155 11.268 121.127h481.69v-121.127h-346.479q33.803-126.761 126.761-219.718t219.718-123.943zM819.718 540.846q33.803-92.958 97.184-170.422t147.887-130.986q-95.775 5.634-180.281 43.662t-147.887 102.817-100 150.704-36.62 184.507v0 0q87.323-115.493 219.718-180.281zM566.197 411.268q-39.437-98.591-112.676-174.648t-171.831-118.31q64.788 84.507 101.408 187.324t36.62 215.493q0 11.268-1.409 19.718t-1.409 16.902q19.718 11.268 38.029 23.944t35.211 26.761q11.268-53.521 29.577-102.817t46.479-94.366z"></path>
</svg>

<?xml version="1.0" encoding="UTF-8" standalone="no"?>
<!DOCTYPE svg PUBLIC "-//W3C//DTD SVG 1.1//EN" "http://www.w3.org/Graphics/SVG/1.1/DTD/svg11.dtd">
<svg width="100%" height="100%" viewBox="0 0 1200 1200" version="1.1" xmlns="http://www.w3.org/2000/svg" xmlns:xlink="http://www.w3.org/1999/xlink" xml:space="preserve" xmlns:serif="http://www.serif.com/" style="fill-rule:evenodd;clip-rule:evenodd;stroke-linejoin:round;stroke-miterlimit:2;">
    <path d="M600,1081.69L0,1081.69L0,960.564L343.662,960.564C323.005,876.057 281.69,802.817 219.719,740.846C157.748,678.875 84.508,637.56 0.001,616.903C18.781,611.27 38.03,607.044 57.747,604.227C77.464,601.41 97.652,600.001 118.311,600.001C185.916,600.001 248.827,612.677 307.044,638.03C365.261,663.383 415.965,697.655 459.157,740.847C502.349,784.039 536.621,834.743 561.974,892.96C587.327,951.177 600.003,1014.09 600.003,1081.69L600,1081.69ZM1200,616.903C1181.22,611.27 1161.97,607.044 1142.25,604.227C1122.54,601.41 1102.35,600.001 1081.69,600.001C993.427,600.001 912.675,621.597 839.436,664.789C766.197,707.981 708.92,765.258 667.605,836.62C676.995,855.4 684.976,875.118 691.549,895.775C698.122,916.432 703.286,938.028 707.042,960.563C714.554,1000 718.31,1040.38 718.31,1081.69L1200,1081.69L1200,960.563L853.521,960.563C876.056,876.056 918.31,802.816 980.282,740.845C1042.25,678.874 1115.49,637.559 1200,616.902L1200,616.903ZM819.718,540.846C842.253,478.874 874.648,422.067 916.902,370.424C959.156,318.781 1008.45,275.119 1064.79,239.438C1000.94,243.194 940.845,257.748 884.508,283.1C828.171,308.452 778.875,342.724 736.621,385.917C694.367,429.11 661.034,479.344 636.621,536.621C612.208,593.898 600.002,655.4 600.001,721.128C658.216,644.133 731.456,584.039 819.719,540.847L819.718,540.846ZM566.197,411.268C539.906,345.541 502.347,287.325 453.521,236.62C404.695,185.915 347.418,146.479 281.69,118.31C324.882,174.648 358.685,237.089 383.098,305.634C407.511,374.179 419.718,446.01 419.718,521.127C419.718,528.639 419.248,535.212 418.309,540.845C417.37,546.478 416.9,552.112 416.9,557.747C430.045,565.259 442.722,573.24 454.929,581.691C467.136,590.142 478.873,599.062 490.14,608.452C497.652,572.771 507.511,538.499 519.717,505.635C531.923,472.771 547.416,441.316 566.196,411.269L566.197,411.268Z" style="fill-rule:nonzero;"/>
</svg>
